X:58
T:Cumberland Reel. THO5.058, The
M:2/4
L:1/8
B:Thompson's Complete Collection of 200 Favourite Dances Vol.5
F:https://www.libraryofdance.org/manuals/1780c-Thompson-Compleat-5.pdf
Z:vmp. Peter Dunk 2024
Q:1/4=120
K:G
[gBDG,]2 a/g/f/e/|dd dc/B/|eeeg|d2B2|
A/B/c/B/ Ad|GGBG| A/B/c/A/ Bd|G2G2:|
|:D2 FE/D/|GGBG|D2 FE/D/|G2 GA/B/|
cd/c/ Bc/B/|AB/A/ {G/}FE/D/|EcAF|G2G2:|
W:
W:Right hands across half round, left hads back again ./.
W:Lead down the middle, up again & cast off ./:
W:Allemand with your partner :/.
W:Right and Left :/:

